X:1
T:Cutting, 664.666.4
T:Wiliam Fiske Sherwin (1826-1888)
T:Cutting, 664.666.4
T:Public Domain
C:Wiliam Fiske Sherwin (1826-1888)
Z:Public Domain
%%score ( 1 2 ) 3
L:1/8
M:4/4
K:Eb
V:1 treble 
V:2 treble 
V:3 bass 
V:1
 [EG]4 [B,F]2 [B,E]2 | [EB]3 [Ec] [EB]4 | [EG]4 [B,F]2 [B,E]2 | [B,D]3 [CE] [DF]4 | %4
 [EG]4 [Gc]2 [E=A]2 | [DB]8 | [EB]4 [EA]2 [EG]2 | [EF]3 [EA] [Ec]4 | [DA]4 [EG]2 [B,F]2 | %9
 [B,E]3 [EG] [GB]4 | [Ee]4 [Ee]2 [Ac]2 | [GB]3 [EG] E4 | [DB]4 [Dc]2 [DB]2 | E8 |] %14
V:2
 x8 | x8 | x8 | x8 | x8 | x8 | x8 | x8 | x8 | x8 | x8 | x4 E4 | x8 | E8 |] %14
V:3
 [E,B,]4 [E,A,]2 [E,G,]2 | [E,G,]3 [E,A,] [E,G,]4 | [E,B,]4 [E,A,]2 [E,G,]2 | %3
 [B,,F,]3 [B,,F,] [B,,B,]4 | [E,B,]4 [C,E]2 [F,C]2 | [B,,B,]8 | [E,G,]4 [E,C]2 [E,B,]2 | %7
 [A,,C]3 [A,,C] [A,,A,]4 | [B,,F,]4 [B,,B,]2 [B,,A,]2 | [E,G,]3 [E,B,] [E,B,]4 | %10
 [G,B,]4 [A,C]2 [A,E]2 | [E,E]3 [E,B,] [E,G,]4 | [B,,F,]4 [B,,A,]2 [B,,A,]2 | [E,G,]8 |] %14

